public/icons/logo-black.svg

<svg width="176" height="42" viewBox="0 0 176 42" fill="none" xmlns="http://www.w3.org/2000/svg">
<path d="M5.77443 28.8725V32.8928C5.77443 34.7025 6.61579 35.6074 8.30249 35.6074C9.98919 35.6074 10.8107 34.7025 10.8107 32.8928V32.1586C10.8107 30.2258 9.00895 27.9716 5.40537 25.384C1.80179 22.8123 0 19.6849 0 15.998V8.40987C0 2.80606 2.76221 0.00415039 8.28268 0.00415039C13.8031 0.00415039 16.5852 2.80606 16.5852 8.40987V13.7954H10.8107V8.40987C10.8107 6.61602 9.97332 5.71114 8.30249 5.69527H8.26282C6.6039 5.69527 5.77443 6.60014 5.77443 8.40987V15.875C5.77443 17.6569 7.57622 19.8397 11.1798 22.4234C14.7834 24.9951 16.5852 28.0748 16.5852 31.6665V32.8888C16.5852 38.5045 13.823 41.3144 8.30249 41.3144C2.76615 41.3025 0 38.4926 0 32.8888V28.8685H5.77443V28.8725Z" fill="#011E3B"/>
<path d="M21.4824 0.638982H36.4563V6.3301H27.2569V12.4697H35.1744V18.1806H27.2569V34.9722H36.4563V40.6633H21.4824V0.63501V0.638982Z" fill="#011E3B"/>
<path d="M40.7427 40.6633V0.63501H46.5172V34.9683H55.7166V40.6594H40.7427V40.6633Z" fill="#011E3B"/>
<path d="M59.1853 40.6633V0.63501H64.9597V34.9683H74.1592V40.6594H59.1853V40.6633Z" fill="#011E3B"/>
<path d="M93.8042 28.9318V32.8886C93.8042 38.4924 91.038 41.3023 85.5017 41.3142C79.9812 41.3142 77.219 38.5043 77.219 32.8886V8.40571C77.219 2.8019 79.9812 0 85.5017 0C91.0221 0 93.8042 2.8019 93.8042 8.40571V13.7912H88.0297V8.40571C88.0297 6.61185 87.1924 5.70699 85.5215 5.69112H85.4819C83.8229 5.69112 82.9935 6.59598 82.9935 8.40571V32.8886C82.9935 34.6984 83.8308 35.6032 85.5017 35.6032C87.1725 35.6032 88.0297 34.6984 88.0297 32.8886V28.9318H93.8042Z" fill="#011E3B"/>
<path d="M98.4993 0.638982H106.905C112.033 0.650888 114.596 3.46073 114.596 9.06454V9.7154C114.596 13.2396 113.08 15.5573 110.048 16.6725L116.537 40.6633H110.211L105.008 17.6925L104.274 17.7957V40.6633H98.4993V0.63501V0.638982ZM104.27 6.3301V12.43H105.595C106.397 12.43 106.949 12.3744 107.246 12.2673C108.294 11.8466 108.818 10.9973 108.818 9.7154V9.06454C108.818 7.24291 107.981 6.3301 106.31 6.3301H104.27Z" fill="#011E3B"/>
<path d="M118.696 0.638982H133.67V6.3301H124.47V12.4697H132.388V18.1806H124.47V34.9722H133.67V40.6633H118.696V0.63501V0.638982Z" fill="#011E3B"/>
<path d="M146.012 9.81859L141.933 40.6633H136.118L142.075 0.63501H149.993L155.93 40.6633H150.096L146.016 9.81859H146.012Z" fill="#011E3B"/>
<path d="M167.697 0.00396729C173.234 0.00396729 176 2.80588 176 8.40969V15.3668C176 17.9901 174.944 19.8475 172.837 20.9349C174.944 22.0223 176 23.8797 176 26.503V32.8886C176 38.4924 173.234 41.2944 167.697 41.2944C162.161 41.2944 159.395 38.4924 159.395 32.8886V26.503C159.395 23.8797 160.45 22.0223 162.558 20.9349C160.45 19.8475 159.395 17.9901 159.395 15.3668V8.40969C159.395 2.80588 162.161 0.00396729 167.697 0.00396729ZM168.249 18.0179C168.793 18.0179 169.201 17.9346 169.471 17.7719C169.975 17.4861 170.225 16.6685 170.225 15.3232V8.40571C170.225 6.61186 169.388 5.707 167.717 5.69112H167.677C166.003 5.70303 165.169 6.60789 165.169 8.40571V15.3232C165.169 16.6685 165.419 17.4861 165.923 17.7719C166.197 17.9346 166.602 18.0179 167.146 18.0179H168.249ZM167.717 35.6032C169.392 35.5913 170.225 34.6865 170.225 32.8886V26.503C170.225 25.0465 169.92 24.1853 169.309 23.9114C168.983 23.7765 168.479 23.709 167.8 23.709H167.598C166.919 23.709 166.415 23.7765 166.09 23.9114C165.479 24.1853 165.173 25.0465 165.173 26.503V32.8886C165.173 34.6825 166.011 35.5874 167.681 35.6032H167.721H167.717Z" fill="#011E3B"/>
</svg>

<svg xmlns="http://www.w3.org/2000/svg" width="176" height="42" fill="none"><path fill="#011E3B" d="M5.774 28.873v4.02q0 2.715 2.528 2.714c1.687 0 2.509-.904 2.509-2.714v-.734c0-1.933-1.802-4.187-5.406-6.775Q0 21.527 0 15.998V8.41Q0 .004 8.283.004c5.52 0 8.302 2.802 8.302 8.406v5.385h-5.774V8.41q-.001-2.691-2.509-2.715h-.04q-2.487 0-2.488 2.715v7.465q0 2.673 5.406 6.548 5.405 3.857 5.405 9.244v1.222q0 8.424-8.283 8.425Q0 41.296 0 32.89v-4.02h5.774zM21.482.639h14.974V6.33h-9.2v6.14h7.918v5.71h-7.917v16.792h9.2v5.691H21.481V.635zM40.743 40.663V.635h5.774v34.333h9.2v5.691H40.743zM59.185 40.663V.635h5.775v34.333h9.2v5.691H59.184zM93.804 28.932v3.957q.001 8.406-8.302 8.425-8.281-.001-8.283-8.425V8.406Q77.219 0 85.502 0c5.52 0 8.302 2.802 8.302 8.406v5.385H88.03V8.406q-.001-2.691-2.508-2.715h-.04q-2.49 0-2.489 2.715v24.483q.001 2.715 2.509 2.714c1.67 0 2.528-.905 2.528-2.714v-3.957zM98.5.639h8.405q7.691.019 7.691 8.426v.65q0 5.286-4.548 6.958l6.489 23.99h-6.326l-5.203-22.97-.734.103v22.867h-5.775V.635zm5.77 5.691v6.1h1.325q1.204-.001 1.651-.163 1.572-.63 1.572-2.552v-.65q0-2.734-2.508-2.735zM118.696.639h14.974V6.33h-9.2v6.14h7.918v5.71h-7.918v16.792h9.2v5.691h-14.974V.635zM146.012 9.819l-4.079 30.844h-5.815L142.075.635h7.918l5.937 40.028h-5.834l-4.08-30.844zM167.697.004q8.304 0 8.303 8.406v6.957q-.001 3.935-3.163 5.568 3.162 1.632 3.163 5.568v6.386q.001 8.405-8.303 8.405t-8.302-8.405v-6.386q0-3.935 3.163-5.568-3.163-1.632-3.163-5.568V8.41q-.001-8.406 8.302-8.406m.552 18.014q.816 0 1.222-.246.755-.43.754-2.449V8.406q0-2.691-2.508-2.715h-.04q-2.51.018-2.508 2.715v6.917q-.001 2.02.754 2.449.409.245 1.223.246zm-.532 17.585c1.675-.012 2.508-.916 2.508-2.714v-6.386q0-2.183-.916-2.592-.49-.202-1.509-.202h-.202q-1.02 0-1.508.202-.917.41-.917 2.592v6.386q.001 2.69 2.508 2.714h.04z"/></svg>
